X:11
T:Derrire Chez Nous
O:France
A:Massif Central
R:Bourre  2 temps
M:C
K:G
A>A AE A3B|c>B AG A2EF|G>G GEG3A|B>A GF E4:|D>D ED A3G|
EG/2F/2 EFD3E|D>D EDA3|1 EG/2F/2 EFD3E:|2 EG/2F/2 ECD4||
